X:1253
T:Connie O'Connell's Jig
O:england
R:jig
M:6/8
L:1/8
K:D
A|dFF AFF|dFF GFE|A,CE G3|A,CE GFE|
DFA DGB|Adc d/2c/2de|fed cBA|GFE D2:|
d|f3 aga|fdc def|e^de g3|e^de c=de|
f3 g3|a^ga ba=g|fed cBA|GFE D2:|
